X:246
T:Je suis entré en nouvelIe pensée (Chanson 23)
S:from bay23.MID
C:Manuscript de Bayeux (fin XVe)
R:Chanson
M:4/4
L:1/8
Q:1/4=120
K:F 
V:1
F4 G2 GB | A3G F2zF | c2 c2 d2 d2 | c3B2<A2G | 
c3d- d/2c/2B/2A/2 B2 | A8 | B2 GB A4 | G2zd2<c2B | 
AG/2F/2 G2 F4- | F4 B2 AG | A3G/2F/2 F2zF | c2 c2 d2 d2 | 
c3B2<A2G | c3d- d/2c/2B/2A/2 B2 | A8 | B2 GB A4 | 
G2zd2<c2B | AG/2F/2 G2 F4- | F4 FC FG | A3G/2F/2 F2zF | 
c2 c2 d2 d2 | A8 | d2 dd2<c2B/2A/2 | G3G2<c2d | 
cd cB A4- | A4 B2 GB | A4 G2zd | c3B AG/2F/2 G2 | F8 |]
V:2
F4 G4 | A4 F2z2 | c4 d4 | c4 A4 | 
c4 c2 B2 | A4 A4 | B2 G2 A2 A2 | G2z2 c4 | 
A2 G2 F4 | F4 B4 | A4 F2z2 | c4 d4 | 
c4 A4 | c4 dc B2 | A4 A4 | B4 A4 | 
G2z2 c4 | A2 G2 F4 | F4 F2 FG | A4 F2z2 | 
c4 d4 | A4 A4 | d4 c4 | G4 c4 | 
c2 B2 A4 | A4 B4 | A4 G2z2 | c4 A2 G2 | F4 F4 |]





